X:4
T:1. Pour quoy
T:(Ronde 1)
C:Tielman Susato
S:Tileman Susato: Danserye (1551)
R:Ronde
M:4/2
L:1/2
T:Bassus
K:C bass
ddA>A|dAd2|GGcd|A2d2::ddf3/2e/4d/4|c/2d/2eAd|ddf3/2e/4d/4|c/2d/2eA2|
%
d>cAA|d>cAd|G2cd|A2d2|d>cAA|d>cAd|G2cd|A2d2:|
